images/user-menu/favourite.svg

<svg xmlns="http://www.w3.org/2000/svg" width="44" height="64" fill="none"><path fill="#000" d="M21.9 41a.9.9 0 0 1-.8-.4c-5.4-6.1-6.7-7.5-7-7.9a5.4 5.4 0 0 1 4.4-8.7c1.3 0 2.5.5 3.5 1.3a5.46 5.46 0 0 1 9 4.1c0 1.3-.5 2.5-1.3 3.4l-7 7.9c-.2.2-.4.3-.8.3Zm-6-9.5c.3.4 3.5 4 6.1 6.9l6.2-7c.5-.5.7-1.2.7-2 0-1.8-1.5-3.3-3.3-3.3-1 0-2 .5-2.7 1.3-.3.3-.6.4-.9.4-.3 0-.6-.2-.8-.4-.7-.8-1.7-1.3-2.7-1.3-1.8 0-3.3 1.5-3.3 3.3-.1.9.3 1.6.7 2.1-.1 0-.1 0 0 0Z"/><rect width="20" height="20" x="20" y="11" fill="#7DB54F" rx="10"/><path fill="#fff" d="M25.13 24.26h1.4v-4.84l.1-.59-.4.47-1.1.79-.38-.51 2.2-1.7h.36v6.38h1.37V25h-3.55v-.74Zm8.83-4.67c0 .35-.07.72-.2 1.09a10.88 10.88 0 0 1-1.21 2.21c-.26.35-.52.69-.78 1.01l-.49.43v.04l.64-.11h2.18V25h-3.98v-.29a33.15 33.15 0 0 0 1.17-1.32 15.09 15.09 0 0 0 1.25-1.83c.18-.32.32-.64.43-.95.1-.31.16-.61.16-.89 0-.33-.1-.6-.28-.81-.19-.22-.47-.33-.85-.33-.25 0-.5.05-.74.16-.24.1-.45.22-.62.35l-.33-.57c.23-.2.51-.36.83-.47.32-.11.66-.17 1.03-.17.29 0 .54.04.76.13a1.5 1.5 0 0 1 .91.9c.08.2.12.43.12.68Z"/></svg>

<svg width="44" height="64" viewBox="0 0 44 64" fill="none" xmlns="http://www.w3.org/2000/svg">
<path d="M21.9 41C21.6 41 21.3 40.9 21.1 40.6C15.7 34.5 14.4 33.1 14.1 32.7C13.4 31.8 13 30.6 13 29.4C13 26.4 15.4 24 18.5 24C19.8 24 21 24.5 22 25.3C23 24.5 24.3 24 25.5 24C28.5 24 31 26.4 31 29.4C31 30.7 30.5 31.9 29.7 32.8L22.7 40.7C22.5 40.9 22.3 41 21.9 41ZM15.9 31.5C16.2 31.9 19.4 35.5 22 38.4L28.2 31.4C28.7 30.9 28.9 30.2 28.9 29.4C28.9 27.6 27.4 26.1 25.6 26.1C24.6 26.1 23.6 26.6 22.9 27.4C22.6 27.7 22.3 27.8 22 27.8C21.7 27.8 21.4 27.6 21.2 27.4C20.5 26.6 19.5 26.1 18.5 26.1C16.7 26.1 15.2 27.6 15.2 29.4C15.1 30.3 15.5 31 15.9 31.5C15.8 31.5 15.8 31.5 15.9 31.5Z" fill="black"/>
<rect x="20" y="11" width="20" height="20" rx="10" fill="#7DB54F"/>
</svg>
